X:1
T:Title
%%score { ( 1 3 ) | ( 2 4 ) }
L:1/8
Q:1/4=100
M:4/4
K:D
V:1 treble nm="Grand Piano"
V:3 treble 
V:2 bass 
V:4 bass 
V:1
 D3 D D2 D2 | [CE]2 [CF]2 D4 | F2 G2 A2 B2 | E2 [CG]2 [DF]4 | [Fd]3 [Fd] [Fc]2 [FB]2 | %5
w: E.~P.~Tate * * *|||||
 [FA]2 [FB]2 [=Fc]4 | [Fc]3 [Fc] [Fc]2 [B,FB]2 | z4 [CA]4 | [F,D]3 [F,D] [F,D]2 [F,D]2 | %9
w: ||||
 [G,CE]2[K:treble] [A,CF]2 z2 =C2 | [B,B]2 [B,A]2 [B,G]2[K:bass] [G,B,E]2 | %11
w: ||
[M:8/4] [G,CE]3 [F,D] [F,D]4 z8 |[M:4/4][K:treble] [B,DG]8 | [A,DF]8 |] %14
w: |||
V:2
 [D,F,]3 [D,F,] [D,F,]2 [D,F,]2 | [A,,G,]2 [A,,A,]2 [D,F,]4 | [D,A,D]2 [E,A,C]2 [F,A,D]2 [G,D]2 | %3
 [A,C]2 [A,,A,]2 [D,A,]4 | [D,A,]3 [D,A,] [D,A,]2 [D,A,]2 | [D,A,]2 [D,F,]2 [C,^G,]4 | %6
 [F,A,]3 [F,A,] [D,F,]2 D,2 | E,2 E,2 z2 G,2 | D,3 D, D,2 D,2 | A,,2 A,,2 B,,2 A,,2 | %10
 [G,,G,]2 [G,,D,]2 [G,,E,]2 G,,2 |[M:8/4] A,,3 D, D,4 z8 |[M:4/4] G,,8 | D,8 |] %14
V:3
 x8 | x8 | x8 | x8 | x8 | x8 | x8 | [CEA]2 [B,D^G]2 A,2 z2 | x8 | z4[K:treble] [F,D]4 | %10
 x6[K:bass] x2 |[M:8/4] x16 |[M:4/4][K:treble] x8 | x8 |] %14
V:4
 x8 | x8 | x8 | x8 | x8 | x8 | x8 | z4 A,,4 | x8 | x8 | x8 |[M:8/4] x16 |[M:4/4] x8 | x8 |] %14

